public/assets/images/github.svg

<svg width="25" height="25" viewBox="0 0 25 25" fill="none" xmlns="http://www.w3.org/2000/svg">
<rect x="0.884766" y="0.9375" width="24" height="24" rx="12" fill="#111827"/>
<path d="M10.9104 18.6547C7.32066 19.7961 7.32066 16.7524 5.88477 16.3719L10.9104 18.6547ZM15.936 20.9375V17.9927C15.963 17.6298 15.9167 17.2651 15.8004 16.9227C15.684 16.5802 15.5002 16.268 15.2612 16.0066C17.5155 15.7403 19.8848 14.8348 19.8848 10.6801C19.8846 9.61772 19.499 8.59606 18.8078 7.82661C19.1351 6.89713 19.112 5.86975 18.7432 4.95789C18.7432 4.95789 17.896 4.69156 15.936 6.08407C14.2905 5.61139 12.5559 5.61139 10.9104 6.08407C8.95041 4.69156 8.10323 4.95789 8.10323 4.95789C7.73447 5.86975 7.71133 6.89713 8.03861 7.82661C7.34229 8.60177 6.95632 9.63266 6.96169 10.7029C6.96169 14.8272 9.33092 15.7327 11.5853 16.0295C11.3491 16.2882 11.1669 16.5967 11.0506 16.9349C10.9344 17.2732 10.8866 17.6336 10.9104 17.9927V20.9375" fill="#111827"/>
<path d="M15.936 20.9375V17.9927C15.963 17.6298 15.9167 17.2651 15.8004 16.9227C15.684 16.5802 15.5002 16.268 15.2612 16.0066C17.5155 15.7403 19.8848 14.8348 19.8848 10.6801C19.8846 9.61772 19.499 8.59606 18.8078 7.82661C19.1351 6.89713 19.112 5.86975 18.7432 4.95789C18.7432 4.95789 17.896 4.69156 15.936 6.08407C14.2905 5.61139 12.5559 5.61139 10.9104 6.08407C8.95041 4.69156 8.10323 4.95789 8.10323 4.95789C7.73447 5.86975 7.71133 6.89713 8.03861 7.82661C7.34229 8.60177 6.95632 9.63266 6.96169 10.7029C6.96169 14.8272 9.33092 15.7327 11.5853 16.0295C11.3491 16.2882 11.1669 16.5967 11.0506 16.9349C10.9344 17.2732 10.8866 17.6336 10.9104 17.9927V20.9375M10.9104 18.6547C7.32066 19.7961 7.32066 16.7524 5.88477 16.3719L10.9104 18.6547Z" stroke="#F9FAFB" stroke-width="1.4" stroke-linecap="round" stroke-linejoin="round"/>
</svg>

<svg xmlns="http://www.w3.org/2000/svg" width="25" height="25" fill="none"><rect width="24" height="24" x=".885" y=".938" fill="#111827" rx="12"/><path fill="#111827" d="M10.91 18.655c-3.59 1.141-3.59-1.903-5.025-2.283l5.025 2.283Zm5.026 2.282v-2.944a2.706 2.706 0 0 0-.136-1.07 2.593 2.593 0 0 0-.539-.916c2.255-.267 4.624-1.172 4.624-5.327a4.275 4.275 0 0 0-1.077-2.853 4.072 4.072 0 0 0-.065-2.87s-.847-.265-2.807 1.127a9.083 9.083 0 0 0-5.026 0C8.95 4.692 8.103 4.958 8.103 4.958a4.072 4.072 0 0 0-.064 2.869 4.276 4.276 0 0 0-1.077 2.876c0 4.124 2.369 5.03 4.623 5.326a2.592 2.592 0 0 0-.534.906 2.708 2.708 0 0 0-.14 1.058v2.945"/><path stroke="#F9FAFB" stroke-linecap="round" stroke-linejoin="round" stroke-width="1.4" d="M15.936 20.938v-2.945a2.706 2.706 0 0 0-.136-1.07 2.593 2.593 0 0 0-.539-.916c2.255-.267 4.624-1.172 4.624-5.327a4.275 4.275 0 0 0-1.077-2.853 4.072 4.072 0 0 0-.065-2.87s-.847-.265-2.807 1.127a9.083 9.083 0 0 0-5.026 0C8.95 4.692 8.103 4.958 8.103 4.958a4.072 4.072 0 0 0-.064 2.869 4.276 4.276 0 0 0-1.077 2.876c0 4.124 2.369 5.03 4.623 5.326a2.592 2.592 0 0 0-.534.906 2.708 2.708 0 0 0-.14 1.058v2.945m0-2.283c-3.59 1.141-3.59-1.903-5.026-2.283l5.025 2.283Z"/></svg>
